svg/fluentui-system-icons/ic_fluent_calendar_reply_20_regular.svg

<svg width="20" height="20" viewBox="0 0 20 20" fill="none" xmlns="http://www.w3.org/2000/svg">
<path d="M14.5 3C15.8807 3 17 4.11929 17 5.5V9.59971C16.6832 9.43777 16.3486 9.30564 16 9.20703V7H4V14.5C4 15.3284 4.67157 16 5.5 16H9.20703C9.30564 16.3486 9.43777 16.6832 9.59971 17H5.5C4.11929 17 3 15.8807 3 14.5V5.5C3 4.11929 4.11929 3 5.5 3H14.5ZM14.5 4H5.5C4.67157 4 4 4.67157 4 5.5V6H16V5.5C16 4.67157 15.3284 4 14.5 4ZM14.5 19C16.9853 19 19 16.9853 19 14.5C19 12.0147 16.9853 10 14.5 10C12.0147 10 10 12.0147 10 14.5C10 16.9853 12.0147 19 14.5 19ZM13.6036 12.6036L12.7071 13.5H14.25C15.7688 13.5 17 14.7312 17 16.25V16.5C17 16.7761 16.7761 17 16.5 17C16.2239 17 16 16.7761 16 16.5V16.25C16 15.2835 15.2165 14.5 14.25 14.5H12.7071L13.6036 15.3964C13.7988 15.5917 13.7988 15.9083 13.6036 16.1036C13.4083 16.2988 13.0917 16.2988 12.8964 16.1036L11.1443 14.3514C11.0974 14.304 11.062 14.2495 11.0379 14.1914C11.0135 14.1324 11 14.0678 11 14C11 13.9322 11.0135 13.8676 11.0379 13.8086C11.0623 13.7496 11.0985 13.6944 11.1464 13.6464L12.8964 11.8964C13.0917 11.7012 13.4083 11.7012 13.6036 11.8964C13.7988 12.0917 13.7988 12.4083 13.6036 12.6036Z" fill="#212121"/>
</svg>

<svg xmlns="http://www.w3.org/2000/svg" width="20" height="20"><path d="M14.5 3A2.5 2.5 0 0 1 17 5.5v4.1a5.465 5.465 0 0 0-1-.393V7H4v7.5A1.5 1.5 0 0 0 5.5 16h3.707c.099.349.23.683.393 1H5.5A2.5 2.5 0 0 1 3 14.5v-9A2.5 2.5 0 0 1 5.5 3h9Zm0 1h-9A1.5 1.5 0 0 0 4 5.5V6h12v-.5A1.5 1.5 0 0 0 14.5 4Zm0 15a4.5 4.5 0 1 0 0-9 4.5 4.5 0 0 0 0 9Zm-.896-6.396-.897.896h1.543A2.75 2.75 0 0 1 17 16.25v.25a.5.5 0 0 1-1 0v-.25a1.75 1.75 0 0 0-1.75-1.75h-1.543l.897.896a.5.5 0 0 1-.708.708l-1.752-1.753a.499.499 0 0 1 .002-.705l1.75-1.75a.5.5 0 0 1 .708.708Z"/></svg>
